packages/sources/icons/src/vitamix/messenger-fill.svg

<svg width="16" height="16" viewBox="0 0 16 16" xmlns="http://www.w3.org/2000/svg"><path fill-rule="evenodd" clip-rule="evenodd" d="M14.6666 7.80001C14.6666 4.08468 11.7559 1.33334 7.99992 1.33334C4.24459 1.33334 1.33325 4.08468 1.33325 7.80001C1.33325 9.74468 2.12992 11.4233 3.42725 12.5827C3.53646 12.6794 3.60106 12.8169 3.60592 12.9627L3.64259 14.1493C3.64807 14.3267 3.74138 14.4897 3.89152 14.5842C4.04166 14.6787 4.22898 14.6924 4.39125 14.6207L5.71392 14.0367C5.82608 13.9874 5.95179 13.9782 6.06992 14.0107C6.69885 14.1822 7.34801 14.2684 7.99992 14.2667C11.7559 14.2667 14.6666 11.5153 14.6666 7.80001ZM4.45585 10.112C4.17519 10.3253 3.80852 9.98935 3.99652 9.69135L5.95452 6.58468C6.10347 6.34841 6.34443 6.1852 6.6191 6.13455C6.89376 6.08389 7.1771 6.15042 7.40052 6.31801L8.95852 7.48468C9.10115 7.59235 9.29789 7.59235 9.44052 7.48468L11.5439 5.88735C11.8245 5.67468 12.1912 6.01068 12.0032 6.30935L10.0452 9.41601C9.89624 9.65228 9.65527 9.81549 9.38061 9.86614C9.10594 9.9168 8.82261 9.85028 8.59919 9.68268L7.04119 8.51601C6.89856 8.40834 6.70181 8.40834 6.55919 8.51601L4.45585 10.112Z"/></svg>

<svg width="16" height="16" xmlns="http://www.w3.org/2000/svg"><path fill-rule="evenodd" clip-rule="evenodd" d="M14.667 7.8c0-3.715-2.911-6.467-6.667-6.467-3.755 0-6.667 2.752-6.667 6.467 0 1.945.797 3.623 2.094 4.783.11.096.174.234.179.38l.037 1.186a.533.533 0 0 0 .748.472l1.323-.584a.533.533 0 0 1 .356-.026 7.264 7.264 0 0 0 1.93.256c3.756 0 6.667-2.752 6.667-6.467ZM4.456 10.112c-.28.213-.647-.123-.46-.42l1.959-3.107A1 1 0 0 1 7.4 6.318l1.558 1.167a.4.4 0 0 0 .482 0l2.103-1.598c.28-.212.647.124.46.422l-1.959 3.107a1 1 0 0 1-1.446.267L7.041 8.516a.4.4 0 0 0-.482 0l-2.103 1.596Z"/></svg>
